dice-d10-outline.svg

<svg fill="currentColor" viewBox="0 0 24 24"><path d="M10.5 16H9v-5.79l-1.78.55V9.53l3.14-1.12h.14zm3.57-7.79c1.43 0 2.57 1.15 2.57 2.57v2.64c0 1.42-1.14 2.58-2.57 2.58s-2.57-1.16-2.57-2.58v-2.64a2.57 2.57 0 0 1 2.57-2.57m-.01 1.44c-.59 0-1.06.48-1.06 1.06v2.79c0 .57.47 1.04 1.06 1.04.58 0 1.08-.48 1.08-1.04v-2.79c0-.59-.5-1.06-1.08-1.06M12 2c-.5 0-1 .19-1.41.59l-8 8c-.79.78-.79 2.04 0 2.82l8 8c.78.79 2.04.79 2.82 0l8-8c.79-.78.79-2.04 0-2.82l-8-8C13 2.19 12.5 2 12 2m0 2 8 8-8 8-8-8Z"/></svg>

<svg  viewBox="0 0 24 24" fill="currentColor"><path  d="M10.5 16H9V10.21L7.22 10.76V9.53L10.36 8.41H10.5V16M14.07 8.21C15.5 8.21 16.64 9.36 16.64 10.78V13.42C16.64 14.84 15.5 16 14.07 16C12.64 16 11.5 14.84 11.5 13.42V10.78C11.5 9.36 12.65 8.21 14.07 8.21M14.06 9.65C13.47 9.65 13 10.13 13 10.71V13.5C13 14.07 13.47 14.54 14.06 14.54C14.64 14.54 15.14 14.06 15.14 13.5V10.71C15.14 10.12 14.64 9.65 14.06 9.65M12 2C11.5 2 11 2.19 10.59 2.59L2.59 10.59C1.8 11.37 1.8 12.63 2.59 13.41L10.59 21.41C11.37 22.2 12.63 22.2 13.41 21.41L21.41 13.41C22.2 12.63 22.2 11.37 21.41 10.59L13.41 2.59C13 2.19 12.5 2 12 2M12 4L20 12L12 20L4 12Z"/></svg>
